!!!!SEGMENT: Wil2023-Pater_noster.krn
!!!id: Wil2023
!!!AGN: Motet
!!!SCT: Zenck (1950)
!!!voices: 4
!!!COM: Adrian Willaert
!!!OTL: Pater noster
**kern	**kern	**kern	**kern
*part4	*part3	*part2	*part1
*staff4	*staff3	*staff2	*staff1
*I"Bassus	*I"Tenor	*I"Altus	*I"Superius
*I'B	*I'T	*I'A	*I'S
*clefF4	*clefGv2	*clefGv2	*clefG2
*k[b-]	*k[b-]	*k[b-]	*k[b-]
*F:	*F:	*F:	*F:
*M2/1	*M2/1	*M2/1	*M2/1
*met(C|)	*met(C|)	*met(C|)	*met(C|)
!!section: Prima pars: Pater noster
!!!OMD: Prima pars: Pater noster
=1	=1	=1	=1
0r	0F	0r	0r
=2	=2	=2	=2
0r	0G	0B-y	0r
=3	=3	=3	=3
0F	0A	0c	0r
=4	=4	=4	=4
0D	1A	0d	0f
.	1A	.	.
=5	=5	=5	=5
0G	1.B-y	0d	0g
.	2B-y	.	.
=6	=6	=6	=6
0F	0A	1r	0a
.	.	[1c	.
=7	=7	=7	=7
1r	1F	1c]	0a
[1D	1r	[1f	.
=8	=8	=8	=8
1D]	0F	2f]	1a
.	.	2e	.
1BB-y	.	1d	[1b-y
=9	=9	=9	=9
0E-X	0G	1B-y	2b-]
.	.	.	2a
.	.	1c	1g
=10	=10	=10	=10
1D	0A	0d	1.f#X
1D	.	.	.
.	.	.	2f#i
=11	=11	=11	=11
1.F	0A	1c	2.a
.	.	.	4b-y
.	.	[1f	1cc
2F	.	.	.
=12	=12	=12	=12
1D	1A	2f]	0f
.	.	2d	.
[1BB-y	[1B-y	2.d	.
.	.	4c	.
=13	=13	=13	=13
1BB-]	2B-]	4d	2r
.	.	4e	.
.	2A	1f	2f
1r	1G	.	[1b-y
.	.	2e	.
=14	=14	=14	=14
1r	1F	0f	2b-]
.	.	.	2a
1D	1r	.	[1a
=15	=15	=15	=15
2C	1r	2r	1a]
2D	.	1d	.
1E	1G	.	1g
.	.	2c	.
=16	=16	=16	=16
2D	2F	2d	2r
1C	2G	1e	1g
.	1A	.	.
2D	.	2d	2f
=17	=17	=17	=17
2E	2G	2r	2g
2D	1F	2d	1a
1r	.	2c	.
.	2G	[2e	[2g
=18	=18	=18	=18
0r	1A	2e]	2g]
.	.	4d	2f
.	.	4c	.
.	2G	2d	2g
.	[2c	2e	[2a
=19	=19	=19	=19
1r	4c]	0d	4a]
.	4B-y	.	4g
.	2B-y	.	1g
1D	1A	.	.
.	.	.	2f#i
=20	=20	=20	=20
1.E-X	2r	2.B-y	0g
.	2G	.	.
.	.	4A	.
.	[1B-y	1G	.
2E-i	.	.	.
=21	=21	=21	=21
1D	2B-]	0F	0r
.	2A	.	.
1D	1A	.	.
=22	=22	=22	=22
2C	1A	0r	0r
2D	.	.	.
2E	2G	.	.
[2F	[2A	.	.
=23	=23	=23	=23
4F]	4A]	1r	0r
4E	4G	.	.
2D	1F	.	.
1C	.	1G	.
.	2E	.	.
=24	=24	=24	=24
2.BB-y	0F	1.B-y	1d
4C	.	.	.
1D	.	.	[1f
.	.	2A	.
=25	=25	=25	=25
2.AA	[0c	2A	2f]
.	.	2A	2e
4BB-y	.	.	.
1C	.	2G	1e
.	.	[2A	.
=26	=26	=26	=26
0r	0c_	4A]	1a
.	.	4G	.
.	.	2F	.
.	.	2E	2g
.	.	[2F	[2a
=27	=27	=27	=27
1r	0c]	4F]	4a]
.	.	4G	4g
.	.	2A	1f
1C	.	2G	.
.	.	[2A	2e
=28	=28	=28	=28
1.D	1r	4A]	1f
.	.	4F	.
.	.	1f	.
.	1A	.	1a
2C	.	2e	.
=29	=29	=29	=29
1BB-y	1.d	0f	1.b-y
2.D	.	.	.
.	2d	.	2a
4E	.	.	.
=30	=30	=30	=30
1F	0c	2r	2a
.	.	1f	2a
1C	.	.	2g
.	.	2e	[2a
=31	=31	=31	=31
1D	1F	2f	4a]
.	.	.	4g
.	.	2B-y	1f
1C	1G	[1c	.
.	.	.	2e
=32	=32	=32	=32
1F	1A	1c]	0f
1r	1B-y	2r	.
.	.	2d	.
=33	=33	=33	=33
1F	1A	2d	1a
.	.	2c	.
1F	1c	1f	1a
=34	=34	=34	=34
1C	1c	1e	1g
2.G	2r	[1d	[1b-y
.	2B-y	.	.
4A	.	.	.
=35	=35	=35	=35
2B-y	2G	1d]	2b-]
2F	2A	.	2a
1G	1B-y	1d	1g
=36	=36	=36	=36
0D	0A	2r	1f#i
.	.	1d	.
.	.	.	2r
.	.	4c	[2fny
.	.	4B-y	.
=37	=37	=37	=37
1D	1r	2A	4f]
.	.	.	4g
.	.	2F	1a
1D	1F	2.A	.
.	.	.	4g
.	.	4B-y	4f
=38	=38	=38	=38
1C	2G	1c	2.e
.	2A	.	.
.	.	.	4f
[1E-X	2G	1r	1g
.	[2c	.	.
=39	=39	=39	=39
2E-]	4c]	0r	0r
.	4B-y	.	.
2D	1B-y	.	.
1C	.	.	.
.	2A	.	.
=40	=40	=40	=40
1BB-y	1B-y	1d	1r
2.D	2r	1d	1f
.	2A	.	.
4E	.	.	.
=41	=41	=41	=41
1F	2A	1c	2a
.	2A	.	2a
1C	2c	[1e-X	2g
.	2G	.	[2cc
=42	=42	=42	=42
0r	2A	2e-]	2cc]
.	2B-y	2d	1b-y
.	1F	1c	.
.	.	.	2a
=43	=43	=43	=43
1r	2r	2.B-y	0b-y
.	2G	.	.
.	.	4c	.
1BB-y	2F	1d	.
.	2G	.	.
=44	=44	=44	=44
2C	1A	1r	0r
2D	.	.	.
[1E-i	[1G	1B-y	.
=45	=45	=45	=45
2E-]	2G]	2c	0r
2D	2F	2d	.
1C	2G	[1e-i	.
.	[2A	.	.
=46	=46	=46	=46
1C	4A]	1e-]	0r
.	4G	.	.
.	1G	.	.
1AA	.	1c	.
.	2F#i	.	.
=47	=47	=47	=47
1GG	2G	1r	2r
.	1B-y	.	2g
1r	.	2r	2f
.	4A	2B-y	2g
.	4G	.	.
=48	=48	=48	=48
0r	1F	2c	1a
.	.	2d	.
.	1c	1e-i	[1g
=49	=49	=49	=49
0r	2r	2.d	2g]
.	1d	.	2f
.	.	4c	.
.	.	2B-y	2g
.	2c	2A	[2a
=50	=50	=50	=50
2r	2d	2B-y	4a]
.	.	.	4g
2C	1e	2c	1g
2C	.	1A	.
2D	[2d	.	2f#i
=51	=51	=51	=51
1E-X	2d]	1G	2.g
.	2c	.	.
.	.	.	4a
2D	2d	1r	2b-y
2C	[2e	.	2cc
=52	=52	=52	=52
1D	4e]	1F	2a
.	4d	.	.
.	1d	.	1b-y
1E	.	1G	.
.	2c	.	4a
.	.	.	4g
=53	=53	=53	=53
[0D	0d	1A	1f#X
.	.	2A	1r
.	.	2F	.
=54	=54	=54	=54
1D]	1r	2B-y	1f
.	.	2A	.
1r	1B-y	1G	1g
=55	=55	=55	=55
0r	1c	1F	1a
.	1d	2r	[1a
.	.	2f	.
=56	=56	=56	=56
1r	1d	2f	1a]
.	.	2f	.
1C	1r	4e	2r
.	.	4d	.
.	.	[2e	2g
=57	=57	=57	=57
1D	1F	4e]	2b-y
.	.	4d	.
.	.	1d	2a
1E	1G	.	1g
.	.	2c	.
=58	=58	=58	=58
1D	1A	2d	1f
.	.	2d	.
2r	1A	2c	1r
2D	.	4F	.
.	.	4G	.
=59	=59	=59	=59
2F	1r	4A	1c
.	.	4B-y	.
2E	.	1c	.
1D	1F	.	1d
.	.	2Bni	.
=60	=60	=60	=60
1C	1G	0c	1e
2r	1A	.	1e
2AA	.	.	.
=61	=61	=61	=61
2.F	1A	2r	2r
.	.	2A	2c
4E	.	.	.
2D	2r	2B-y	2f
2C	2G	2c	2e
=62	=62	=62	=62
1D	2B-y	1F	0d
.	2A	.	.
1GG	1G	1B-y	.
=63	=63	=63	=63
1D	1F	1A	1d
1D	2r	1d	2r
.	2F	.	2a
=64	=64	=64	=64
2G	2G	2d	2b-y
2F	2A	2d	2a
1G	1B-y	2.e	1g
.	.	4d	.
=65	=65	=65	=65
1D	0A	1d	0f#X
2r	.	2r	.
2D	.	2d	.
=66	=66	=66	=66
2F	2r	1c	0r
2E	2G	.	.
1D	2A	1d	.
.	2B-y	.	.
=67	=67	=67	=67
1C	1.c	1.e	1r
1G	.	.	1g
.	2B-y	2d	.
=68	=68	=68	=68
1D	2A	0d	1f
.	2A	.	.
1G	2B-y	.	1g
.	2B-y	.	.
=69	=69	=69	=69
1.F	1.c	1.f	1.a
2C	2c	2e	2g
=70	=70	=70	=70
1C	1c	1e	0g
2r	2r	2e	.
[2C	[2G	4d	.
.	.	4c	.
=71	=71	=71	=71
2C]	2G]	2e	0r
2D	2F	2d	.
2E	2G	1c	.
2F	2A	.	.
=72	=72	=72	=72
1G	1B-y	1r	2r
.	.	.	1g
1D	2A	2r	.
.	2B-y	[2d	2f
=73	=73	=73	=73
0r	2B-y	2d]	2g
.	2A	2c	2a
.	1G	2d	1b-y
.	.	2e	.
=74	=74	=74	=74
2r	1F	1f	1a
1D	.	.	.
.	2r	1d	2r
2BB-y	[2G	.	2b-y
=75	=75	=75	=75
2C	2G]	2r	2a
2D	2F	2d	2a
1E-i	1G	2B-y	1g
.	.	2c	.
=76	=76	=76	=76
1D	1A	1d	2f
.	.	.	2a
2r	1B-y	1d	2a
[2G	.	.	2g
=77	=77	=77	=77
2G]	1A	2r	1a
2F	.	1d	.
2.G	2r	.	2d
.	2B-y	2d	[2g
4F	.	.	.
=78	=78	=78	=78
2E	2B-y	2G	2g]
2F	2A	2.c	1f
1C	1G	.	.
.	.	4B-y	.
.	.	2c	2e
=79	=79	=79	=79
2r	1F	1A	0f
2D	.	.	.
2BB-y	2r	2r	.
2BB-y	2B-y	2d	.
=80	=80	=80	=80
2.E-X	2G	2B-y	1g
.	2G	2c	.
4D	.	.	.
1BB-y	2.B-y	2.d	2f
.	.	.	2g
.	4A	8cL	.
.	.	8B-yJ	.
=81	=81	=81	=81
2r	1F	2c	1a
2F	.	2d	.
2E	1r	2G	2g
2F	.	2c	[2a
=82	=82	=82	=82
2.G	1r	2.B-y	4a]
.	.	.	4g
.	.	.	1g
8FL	.	8AL	.
8EJ	.	8GJ	.
1D	2r	2A	.
.	2d	2A	2f#i
=83	=83	=83	=83
2r	2B-y	1G	1g
2C	2c	.	.
2BB-y	2d	2r	1r
2C	4c	2G	.
.	4B-y	.	.
=84	=84	=84	=84
2D	2A	2F	0r
4C	2D	2G	.
4BB-y	.	.	.
2C	2E	1A	.
2D	2F	.	.
=85	=85	=85	=85
2GG	2D	2G	0r
2C	2.E	2.A	.
2.BB-y	.	.	.
.	4D	4G	.
.	[2D	[2G	.
8AAL	.	.	.
8GGJ	.	.	.
=86	=86	=86	=86
1AA	2D]	2G]	1r
.	2C	2F#i	.
2GG	1D	2G	2r
2BB-y	.	2G	2d
=87	=87	=87	=87
2AA	2r	2A	2c
2D	2F	2B-y	2d
2.C	2G	1c	1e
.	2A	.	.
8BB-yL	.	.	.
8AAJ	.	.	.
=88	=88	=88	=88
2BB-y	2D	2r	2d
2C	2G	2c	2.e
2D	2F	2A	.
.	.	.	4d
2BB-y	4E	2G	[2d
.	4D	.	.
=89	=89	=89	=89
1AA	2E	1A	2d]
.	2E	.	2c#i
1r	1D	2r	1d
.	.	[2A	.
=90	=90	=90	=90
1D	2r	2A]	2r
.	2F	2A	2d
2C	2G	[1c	2e
[2F	[2A	.	[2f
=91	=91	=91	=91
2F]	2A]	2c]	2f]
2C	2G	2c	2e
1D	1F	1A	1d
=92	=92	=92	=92
1C	0G	1c	1e
1GG	.	2.B-y	1d
.	.	4c	.
=93	=93	=93	=93
0r	1G	[0d	2r
.	.	.	2g
.	2r	.	2f
.	[2G	.	[2b-y
=94	=94	=94	=94
0r	2G]	0d]	2b-]
.	2D	.	1a
.	2F	.	.
.	2G	.	[2g
=95	=95	=95	=95
0r	1A	1r	2g]
.	.	.	2f#i
.	2G	2r	[1g
.	[2G	2d	.
=96	=96	=96	=96
2r	2G]	2B-y	1g]
1C	2G	1e-X	.
.	2G	.	1r
2GG	2G	[2d	.
=97	=97	=97	=97
2BB-y	1G	2d]	0r
2C	.	1c	.
1D	1F	.	.
.	.	2Bni	.
=98	=98	=98	=98
2C	2r	2c	2r
1C	1G	1c	1e
2C	2G	2c	2e
=99	=99	=99	=99
2F	2A	2c	2f
2F	2A	2c	2f
1C	[1G	1c	1e
=100	=100	=100	=100
0GG	1G]	2.B-y	1d
.	.	4c	.
.	1G	[1d	2r
.	.	.	2g
=101	=101	=101	=101
0r	2r	0d_	2f
.	1G	.	1b-y
.	2D	.	[2a
=102	=102	=102	=102
0r	2F	1d]	2a]
.	2G	.	1g
.	1A	1r	.
.	.	.	2f#i
=103	=103	=103	=103
2r	2G	2r	2g
1G	1B-y	1d	1g
2G	2B-y	2d	2g
=104	=104	=104	=104
2C	2c	2e	2g
2C	2c	2e	2g
1G	1B-y	1d	1g
=105	=105	=105	=105
0D	0A	0d	0f
=106	=106	=106	=106
0D	0A	0d	1r
.	.	.	1f
=107	=107	=107	=107
1.G	1.B-y	1.d	1.g
2G	2B-y	2d	2g
=108	=108	=108	=108
1G	1B-y	1d	1g
[1C	[1c	1e	[1g
=109	=109	=109	=109
1C]	1c]	1e	1g]
1F	1c	2.f	1a
.	.	4e	.
=110	=110	=110	=110
2.G	1B-y	4d	0g
.	.	4c	.
.	.	1d	.
4F	.	.	.
1E	1G	.	.
.	.	2c	.
=111	=111	=111	=111
0D	0A	0d	0f#X
=112	=112	=112	=112
1r	1r	1r	1r
1GG	1G	1B-y	1d
=113	=113	=113	=113
1.C	1.G	1.c	1.e
2C	2G	2c	2e
=114	=114	=114	=114
1C	1G	1c	1e
[1F	[1A	[1c	[1f
=115	=115	=115	=115
1F]	1A]	1c]	1f]
1BB-y	1B-y	1d	1f
=116	=116	=116	=116
0C	0G	0c	0e
=117	=117	=117	=117
00GGl	00Gl	00B-yl	00dl
==	==	==	==
*-	*-	*-	*-
!!!system-decoration: [*]
!!!RDF**kern: i = editorial accidental
!!!RDF**kern: l = terminal long
!!!ENC: Benjamin Ory
!!!END: 2020/12/17
!!!EED: Benjamin Ory
!!!EEV: 2021/04/30
!!!YEC: Copyright 2021 Benjamin Ory, All Rights Reserved
!!!ONB: Translated from MusicXML on 2021/04/30
